X: 14
T:Ponytrot Polka
M:2/4
L:1/8
Q:350
C:Billy Bennington
S:via Katie Howson
R:polka
B:``
K:G
dd|e2 dd| e2 dd| e2 d2-|d2 G2| G3 B| A2 G2| E4| AB cB| AB c2| AB cB| AB
c2| D2 d2| d2 e2|d2 B2-|B2dd|e2 dd| e2 dd| e2 d2-|d2 G2| G3 B| A2 G2| E4
| AB
cB| AB c2| AB cB| AB c2| D2D2| E2 F2| G4|| D4-|D2 G2| BA BA|B2 D2| E4- |
E
2 A2 | cB cB| c2 A2| F2 F2| F2 G2|A2 F2|E2 D2|D2c2|B2 A2| B4| D4-|D2 G2|
 BA BA|B2 D2| E4- |E
2 A2 | cB cB| c2 A2| F2 F2| F2G2|A2F2|E2D2|D2 c2|B2 A2|G4||
